src/images/icon/icon_sharing_space.svg

<svg height="32" viewBox="0 0 32 32" width="32" xmlns="http://www.w3.org/2000/svg" xmlns:xlink="http://www.w3.org/1999/xlink"><linearGradient id="a" x1="34.177648%" x2="44.89957%" y1="30.489554%" y2="50%"><stop offset="0" stop-color="#b6c2cd"/><stop offset="1" stop-color="#36435c"/></linearGradient><g fill="none" fill-rule="evenodd"><circle cx="16" cy="17" r="11" stroke="url(#a)" stroke-width="2"/><path d="m9.37575757 0c2.21515153 0 4.12424243 1.2825 5.04242423 3.1425 1.5691698.09356707 2.9746494.79391269 3.9827627 1.8703442l-9.9879445 9.9871558h-3.413c-2.71341524-.1480743-4.88005312-2.2220435-4.99518664-4.785294l-.00481336-.214706c0-2.25625 1.58909091-4.163125 3.77121212-4.785.21060606-2.9140625 2.63666666-5.215 5.60454545-5.215z" fill="#b6c2cd" fill-rule="nonzero" transform="translate(0 2)"/><g transform="translate(6 10.000195)"><path d="m12.2417607 0c2.8570082.02094278 5.3156066 1.72511165 6.5018757 4.18980479 4.0469394.2475 7.2563636 3.67916668 7.2563636 7.89333331 0 4.37125-3.2763939 7.9166667-7.3115152 7.9166667h-12.1884848c-3.62542425-.2029167-6.5-3.1183333-6.5-6.6666667 0-.4111681.03859038-.8136342.11246509-1.2042134z" fill="#36435c" fill-rule="nonzero"/><g stroke="#e8eef4" stroke-width="2" transform="translate(5.73 6.999805)"><path d="m2.77048547 8-2.77048547-3 2.77048547-3"/><path d="m12.77 8 2.7704855-3-2.7704855-3"/><path d="m9.77 0-4 10"/></g></g></g></svg>

<?xml version="1.0" encoding="UTF-8"?>
<svg width="32px" height="32px" viewBox="0 0 32 32" version="1.1" xmlns="http://www.w3.org/2000/svg" xmlns:xlink="http://www.w3.org/1999/xlink">
    
    <defs>
        <linearGradient x1="34.1776475%" y1="30.489554%" x2="44.8995696%" y2="50%" id="linearGradient-1">
            <stop stop-color="#B6C2CD" offset="0%"></stop>
            <stop stop-color="#36435C" offset="100%"></stop>
        </linearGradient>
    </defs>
    <g id="Dashboard" stroke="none" stroke-width="1" fill="none" fill-rule="evenodd">
        <g id="00-Menu-交互备份" transform="translate(-369.000000, -230.000000)">
            <g id="编组-15备份" transform="translate(369.000000, 230.000000)">
                <circle id="椭圆形" stroke="url(#linearGradient-1)" stroke-width="2" cx="16" cy="17" r="11"></circle>
                <g id="编组备份" transform="translate(0.000000, 2.000000)" fill="#B6C2CD" fill-rule="nonzero">
                    <path d="M9.37575757,0 C11.5909091,0 13.5,1.2825 14.4181818,3.1425 C15.9873516,3.23606707 17.3928312,3.93641269 18.4009445,5.0128442 L8.413,15 L5,15 C2.28658476,14.8519257 0.119946875,12.7779565 0.00481335575,10.214706 L0,10 C0,7.74375 1.58909091,5.836875 3.77121212,5.215 C3.98181818,2.3009375 6.40787878,0 9.37575757,0 Z" id="形状结合"></path>
                </g>
                <g id="编组" transform="translate(6.000000, 10.000195)">
                    <path d="M12.2417607,-1.7582634e-13 C15.0987689,0.0209427791 17.5573673,1.72511165 18.7436364,4.18980479 C22.7905758,4.43730479 26,7.86897147 26,12.0831381 C26,16.4543881 22.7236061,19.9998048 18.6884848,19.9998048 L18.6884848,19.9998048 L6.5,19.9998048 C2.87457575,19.7968881 0,16.8814715 0,13.3331381 C0,12.92197 0.0385903806,12.5195039 0.112465091,12.1289247 Z" id="形状结合" fill="#36435C" fill-rule="nonzero"></path>
                    <g id="编组-2" transform="translate(5.730000, 6.999805)" stroke="#E8EEF4" stroke-width="2">
                        <polyline id="路径" points="2.77048547 8 -7.77156117e-15 5 2.77048547 2"></polyline>
                        <polyline id="路径" points="12.77 8 15.5404855 5 12.77 2"></polyline>
                        <line x1="9.77" y1="0" x2="5.77" y2="10" id="路径-3"></line>
                    </g>
                </g>
            </g>
        </g>
    </g>
</svg>
